source/svgs/bowtie/uEA99-package-feed-remote.svg

<svg xmlns="http://www.w3.org/2000/svg" viewBox="0 0 448 448" enable-background="new 0 0 448 448"><path d="M320 448h-320v-320h320v320zm-288-32h256v-256h-256v256zm272-416v32c61.75 0 112 50.25 112 112h32c0-79.406-64.594-144-144-144zm0 64v32c26.469 0 48 21.531 48 48h32c0-44.109-35.875-80-80-80zm-48 320h-192v-192h192v192zm-160-32h128v-128h-128v128z"/></svg>

<svg xmlns="http://www.w3.org/2000/svg" viewBox="0 0 448 448"><path d="M320 448H0V128h320v320zM32 416h256V160H32v256zM304 0v32c61.75 0 112 50.25 112 112h32C448 64.594 383.406 0 304 0zm0 64v32c26.469 0 48 21.531 48 48h32c0-44.109-35.875-80-80-80zm-48 320H64V192h192v192zM96 352h128V224H96v128z"/></svg>
